alura/assets/api/cursos/mysql-dba-administracao.svg

<svg xmlns="http://www.w3.org/2000/svg" viewBox="0 0 42 48"><g fill="none" fill-rule="evenodd"><path fill="#E589EF" d="M2.17 39.995L14.09 44.1l25.739-9.368V23.337l-9.417-3.241.002-15.334-9.419-3.239-9.413 3.239.003 5.038-9.418 3.237z"/><path fill="#F799FF" d="M2.167 15.445L30.414 5.164v-.402l-9.419-3.239-9.413 3.239.003 5.038-9.418 3.237z"/><path fill="#444" fill-rule="nonzero" d="M31.667 19.205l.001-15.335L21 .201l-10.664 3.67.003 5.037-9.418 3.237.003 28.742L21 47.799l8.978-3.09c.653-.225 1-.936.775-1.588a1.231 1.231 0 00-.214-.365V26.968l8-2.755.044.015v10.503a1.25 1.25 0 002.5 0V22.445l-9.416-3.24zM12.84 10.43l-.003-4.714 8.033 2.766v4.712l-8.03-2.764zm8.03 18.376l-9.163 3.155V16.699l9.163-3.155v15.262zm-9.16 3.504l9.163 3.155v9.646l-9.163-3.155V32.31zm9.288 2.934l-9.029-3.109 9.026-3.108 9.033 3.108-9.03 3.109zm9.291-3.283l-9.169-3.155v-4.995l9.169 3.157v4.993zM21.12 8.484l8.048-2.771-.001 14.982-8.047 2.771V8.484zm7.748-2.933l-7.87 2.71-7.867-2.709L21 2.845l7.868 2.706zm-16.031 5.142l7.775 2.676-9.03 3.108-7.78-2.679 9.035-3.105zm-9.416 3.238l8.036 2.767v25.171l-8.033-2.766-.003-25.172zm25.744 28.415l-8.042 2.766v-9.647l9.164-3.155v10.221c-.319-.229-.726-.324-1.122-.185zm1.249-15.599l-9.027-3.109 7.78-2.679v.028l8.988 3.093-7.741 2.667z"/></g></svg>

<?xml version="1.0" encoding="UTF-8"?>
<svg width="42px" height="48px" viewBox="0 0 42 48" version="1.1" xmlns="http://www.w3.org/2000/svg" xmlns:xlink="http://www.w3.org/1999/xlink">
    <!-- Generator: Sketch 52.5 (67469) - http://www.bohemiancoding.com/sketch -->
    <title>administracao-do-sql-server-2017</title>
    <desc>Created with Sketch.</desc>
    <g id="Page-1" stroke="none" stroke-width="1" fill="none" fill-rule="evenodd">
        <g id="administracao-do-sql-server-2017">
            <polygon id="Path" fill="#E589EF" points="2.17 39.995 14.09 44.1 39.829 34.732 39.829 23.337 30.412 20.096 30.414 4.762 20.995 1.523 11.582 4.762 11.585 9.8 2.167 13.037"></polygon>
            <polygon id="Path" fill="#F799FF" points="2.167 15.445 30.414 5.164 30.414 4.762 20.995 1.523 11.582 4.762 11.585 9.8 2.167 13.037"></polygon>
            <path d="M31.667,19.205 L31.668,3.87 L21,0.201 L10.336,3.871 L10.339,8.908 L0.921,12.145 L0.924,40.887 L21,47.799 L29.978,44.709 C30.631,44.484 30.978,43.773 30.753,43.121 C30.7032671,42.9878943 30.6308645,42.8644039 30.539,42.756 L30.539,26.968 L38.539,24.213 L38.583,24.228 L38.583,34.731 C38.583,35.4213559 39.1426441,35.981 39.833,35.981 C40.5233559,35.981 41.083,35.4213559 41.083,34.731 L41.083,22.445 L31.667,19.205 Z M12.84,10.43 L12.837,5.716 L20.87,8.482 L20.87,13.194 L12.84,10.43 Z M20.87,28.806 L11.707,31.961 L11.707,16.699 L20.87,13.544 L20.87,28.806 Z M11.71,32.31 L20.873,35.465 L20.873,45.111 L11.71,41.956 L11.71,32.31 Z M20.998,35.244 L11.969,32.135 L20.995,29.027 L30.028,32.135 L20.998,35.244 Z M30.289,31.961 L21.12,28.806 L21.12,23.811 L30.289,26.968 L30.289,31.961 Z M21.12,8.484 L29.168,5.713 L29.167,20.695 L21.12,23.466 L21.12,8.484 Z M28.868,5.551 L20.998,8.261 L13.131,5.552 L21,2.845 L28.868,5.551 Z M12.837,10.693 L20.612,13.369 L11.582,16.477 L3.802,13.798 L12.837,10.693 Z M3.421,13.931 L11.457,16.698 L11.457,41.869 L3.424,39.103 L3.421,13.931 Z M29.165,42.346 L21.123,45.112 L21.123,35.465 L30.287,32.31 L30.287,42.531 C29.968,42.302 29.561,42.207 29.165,42.346 Z M30.414,26.747 L21.387,23.638 L29.167,20.959 L29.167,20.987 L38.155,24.08 L30.414,26.747 Z" id="Shape" fill="#444444" fill-rule="nonzero"></path>
        </g>
    </g>
</svg>
